src/images/icon-staking-1.svg

<svg fill="none" height="24" viewBox="0 0 24 24" width="24" xmlns="http://www.w3.org/2000/svg"><path d="m7 7 .70711-.70711c-.286-.28599-.71612-.37155-1.08979-.21677-.37368.15478-.61732.51942-.61732.92388zm0 10h-1c0 .4045.24364.7691.61732.9239.37367.1548.80379.0692 1.08979-.2168zm10-10h1c0-.40446-.2436-.7691-.6173-.92388s-.8038-.06922-1.0898.21677zm0 10-.7071.7071c.286.286.7161.3716 1.0898.2168s.6173-.5194.6173-.9239zm-3.2071-8.20711c-.3905.39053-.3905 1.02369 0 1.41421.3905.3905 1.0237.3905 1.4142 0zm-3.5858 6.41421c.3905-.3905.3905-1.0237 0-1.4142-.39052-.3905-1.02368-.3905-1.41421 0zm-4.2071-8.2071v10h2v-10zm10 0v10h2v-10zm1.7071 9.2929-9.99999-10.00001-1.41422 1.41422 10.00001 9.99999zm-2.5-6.0858 2.5-2.49999-1.4142-1.41422-2.5 2.5zm-7.49999 7.5 2.49999-2.5-1.41421-1.4142-2.5 2.5z" fill="#999"/><circle cx="12" cy="12" r="11" stroke="#999" stroke-width="2"/></svg>

<svg width="24" height="24" viewBox="0 0 24 24" fill="none" xmlns="http://www.w3.org/2000/svg">
<path d="M7 7L7.70711 6.29289C7.42111 6.0069 6.99099 5.92134 6.61732 6.07612C6.24364 6.2309 6 6.59554 6 7H7ZM7 17H6C6 17.4045 6.24364 17.7691 6.61732 17.9239C6.99099 18.0787 7.42111 17.9931 7.70711 17.7071L7 17ZM17 7H18C18 6.59554 17.7564 6.2309 17.3827 6.07612C17.009 5.92134 16.5789 6.0069 16.2929 6.29289L17 7ZM17 17L16.2929 17.7071C16.5789 17.9931 17.009 18.0787 17.3827 17.9239C17.7564 17.7691 18 17.4045 18 17H17ZM13.7929 8.79289C13.4024 9.18342 13.4024 9.81658 13.7929 10.2071C14.1834 10.5976 14.8166 10.5976 15.2071 10.2071L13.7929 8.79289ZM10.2071 15.2071C10.5976 14.8166 10.5976 14.1834 10.2071 13.7929C9.81658 13.4024 9.18342 13.4024 8.79289 13.7929L10.2071 15.2071ZM6 7V17H8V7H6ZM16 7V17H18V7H16ZM17.7071 16.2929L7.70711 6.29289L6.29289 7.70711L16.2929 17.7071L17.7071 16.2929ZM15.2071 10.2071L17.7071 7.70711L16.2929 6.29289L13.7929 8.79289L15.2071 10.2071ZM7.70711 17.7071L10.2071 15.2071L8.79289 13.7929L6.29289 16.2929L7.70711 17.7071Z" fill="#999999"/>
<circle cx="12" cy="12" r="11" stroke="#999999" stroke-width="2"/>
</svg>
